X:18
T:Mac An Irish
R:strathspey
H:Scottish
Z:id:hn-strathspey-18
M:C
L:1/8
K:D
A>B d>e f<a f2 | e>d d/d/d B<d e2 | A>B d>e f<a f2 | f>e d>B A2A2 :|
|: a2 a>g f<a f2 | e>d d/d/d B<d e2 |1 a2 a>g f<a f2 | f>e d>B A2A2 :|
[2 A>B d>e f<a f2 | f>e d>B A2 A2 ||

